X: 0632
M: 2/4
L: 1/16
K: F
c2 |\
f2c2 d2c2 | A2c2 c2c2 | f2c2 d2c2 | A2F2F2 c2 |\
f2c2 edcB | A2c2 c2c2 | d2f2 c2B2 | A2F2F2 :|
|: FG |\

